X: 20025
T: Jimmy Doyle's
R: polka
M: 2/4
K: Amajor
ce ef|ec cB/c/|ec Bc|ec A>B|
ce ef|ec cB/c/|eA cB|1 BA A>B:|2 BA A2||
Aa ga|gf f2|fe ^de|fe cB|
Aa ga|gf f2|ec cB|BA A2:|

